X:1
T:Welcome, sweet day of rest
T:Welcome, sweet day of rest - Thanet (Thomas Clark)
C:Thomas Clark
Z:p79, A Fifth Set of
Z:Psalm and Hymn Tunes,
Z:London: [c1809]
%%score [ 1 2 3 4 ]
L:1/8
M:3/4
K:D
V:1 treble nm="SOPRANO" snm="S."
V:2 treble nm="ALTO" snm="A."
V:3 treble-8 transpose=-12 nm="TENOR" snm="T."
V:4 bass nm="BASS" snm="B."
V:1
 d2 F2 A2 | (G2 F2) E2 | D4 E2 | (F2 G2) A2 | (B2 c2) d2 | (d2 c2) d2 | (e2 c2) A2 | %7
w: One day a-|midst _ the|place Where|my _ dear|God _ hath|been, _ where|my _ dear|
w: Wel- come, sweet|day _ of|rest, That|saw _ the|Lord _ a-|rise, _ that|saw _ the|
w: The King him-|self _ comes|near, And|feasts _ his|saints _ to-|day, _ and|feasts _ his|
 (Bc/d/ c2) B2 | A4 z2 | A2 F2 A2 | (B2 c2) d2 | (e>f g2) f2 | (f2 e2) e2 | (f2 e2) d2 | %14
w: God _ _ _ hath|been,|Is swee- ter|than _ ten|thou- * * sand|days _ Of|plea- * su-|
w: Lord _ _ _ a-|rise;|Wel- come to|this _ re-|vi- * * ving|breast, _ And|these _ re-|
w: saints _ _ _ to-|day;|Here may we|sit, _ and|see _ _ him|here, _ And|love, _ and|
 (c2 B2) A2 | (d3 f eg | f3 d Be | d2 !fermata!c2) d2 | (A2 g2) f2 | (e2 d2) c2 | d4 |] %21
w: ra- * ble|sin, _ _ _|_ _ _ _|* * of|plea- * su-|ra- * ble|sin.|
w: joi- * cing|eyes, _ _ _|_ _ _ _|* * and|these _ re-|joi- * cing|eyes.|
w: praise, _ and|pray, _ _ _|_ _ _ _|* * and|love, _ and|praise, _ and|pray.|
V:2
 F2 D2 D2 | (E2 D2) C2 | D4 C2 | (D2 E2) F2 | (D2 G2) F2 | (F2 E2) F2 | A4 C2 | (F2 E2) D2 | %8
w: One day a-|midst _ the|place Where|my _ dear|God _ hath|been, _ where|my dear|God _ hath|
w: Wel- come, sweet|day _ of|rest, That|saw _ the|Lord _ a-|rise, _ that|saw the|Lord _ a-|
w: The King him-|self _ comes|near, And|feasts _ his|saints _ to-|day, _ and|feasts his|saints _ to-|
 C4 z2 | D2 D2 F2 | G4 A2 | A4 A2 | A4 z2 | z4 D2 | (A2 G2) F2 | A6- | A4 B2 | !fermata!A4 A2 | %18
w: been,|Is swee- ter|than ten|thou- sand|days|Of|plea- * su-|ra-|* ble|sin, of|
w: rise;|Wel- come to|this re-|vi- ving|breast,|And|these _ re-|joi-|* cing|eyes, and|
w: day;|Here may we|sit, and|see him|here,|And|love, _ and|praise,|_ and|pray, and|
 (F2 E2) (3(DFA) | (G2 F2) E2 | F4 |] %21
w: plea- * su- * *|ra- * ble|sin.|
w: these _ re- * *|joi- * cing|eyes.|
w: love, _ and _ _|praise, _ and|pray.|
V:3
 A2 A2 d2 | (B2 A2) G2 | F4 A2 | (d2 c2) d2 | (B2 G2) A2 | A4 A2 | (c2 e2) A2 | A4 ^G2 | A4 z2 | %9
w: One day a-|midst _ the|place Where|my _ dear|God _ hath|been, where|my _ dear|God hath|been,|
w: Wel- come, sweet|day _ of|rest, That|saw _ the|Lord _ a-|rise, that|saw _ the|Lord a-|rise;|
w: The King him-|self _ comes|near, And|feasts _ his|saints _ to-|day, and|feasts _ his|saints to-|day;|
 F2 A2 d2 | (d2 e2) d2 | c4 d2 | (d2 c2) z2 | z6 | z4 d2 | (f2 d2) c2 | d4 g2 | %17
w: Is swee- ter|than _ ten|thou- sand|days _||Of|plea- * su-|ra- ble|
w: Wel- come to|this _ re-|vi- ving|breast, _||And|these _ re-|joi- cing|
w: Here may we|sit, _ and|see him|here, _||And|love, _ and|praise, and|
 (f2 !fermata!e2) f2 | (d2 c2) d2 | (B2 A2) A2 | A4 |] %21
w: sin, _ of|plea- * su-|ra- * ble|sin.|
w: eyes, _ and|these _ re-|joi- * cing|eyes.|
w: pray, _ and|love, _ and|praise, _ and|pray.|
V:4
 D,2 D,2"^6" F,2 |"^6" (G,2"^64" A,2)"^75" A,,2 | D,4 A,2 |"^64" (A,2"^64" G,2)"^6" F,2 | %4
w: One day a-|midst _ the|place Where|my _ dear|
w: Wel- come, sweet|day _ of|rest, That|saw _ the|
w: The King him-|self _ comes|near, And|feasts _ his|
 (G,2"^6" E,2) D,2 |"^64""^53" A,4 D2 | A,4 F,2 |"^65" (D,2"^64" E,2)"^7#" E,2 | A,,4 z2 | %9
w: God _ hath|been, where|my dear|God _ hath|been,|
w: Lord _ a-|rise, that|saw the|Lord _ a-|rise;|
w: saints _ to-|day, and|feasts his|saints _ to-|day;|
 D,2 D,2 D,2 |"^53""^64" G,4"^6" F,2 |"^64""^--3" E,4 D,2 | A,4 z2 | z6 | z6 | %15
w: Is swee- ter|than ten|thou- sand|days|||
w: Wel- come to|this re-|vi- ving|breast,|||
w: Here may we|sit, and|see him|here,|||
"^Notes:The order of staves in the source is Tenor - [Alto] - Air - [Bass], with the alto part printed in the treble clef an octave abovesounding pitch.Only the first verse of text is given in the source: subsequent verses have here been added editorially." z4 A,2 | %16
w: Of|
w: And|
w: And|
 D3"^6" F, G,E, |"^64""^53" !fermata!A,4 D,2 | (D,2"^6" E,2)"^6" F,2 | %19
w: plea- su- ra- ble|sin, of|plea- * su-|
w: these re- joi- cing|eyes, and|these _ re-|
w: love, and praise, and|pray, and|love, _ and|
"^6" (G,2"^64" A,2)"^53" A,,2 | D,4 |] %21
w: ra- * ble|sin.|
w: joi- * cing|eyes.|
w: praise, _ and|pray.|

